X: 201424
T: Taidhg\'in an Asail
S: B.Breathnach: "Ceol Rince na hEireann" II/38
Z: B.Black
N: Version of "Where's the Cat"
L: 1/8
M: 6/8
R: jig
K: G
DED G2D|E2D G2E|DED G2B|ABG E2D|
DED G2D|E2D G2A|BdB c2B|ABG E2D :|
ABc d2B|BAB cBc|BAB d2B|ABG E2D|
ABc ddd|BAB c3|ef/g/e d2B|ABG E2D :|
